X:1
T:Through all the changing scenes of life
T:Stephen Jarvis
T:p4, Twelve Psalm Tunes, and Eight Anthems, in Score, London: [1821]
T:This edition by Edmund Gooch released into the public domain, January 2011. As such, it may be freely copied and performed.
T:Through all the changing scenes of life
T:Psalm 34th 1 2 3 & 4/5 Verses
C:Stephen Jarvis
Z:p4, Twelve Psalm Tunes,
Z:and Eight Anthems, in
Z:Score, London: [1821]
%%score [ 1 2 ( 3 4 ) 5 ]
L:1/8
M:3/2
K:Eb
V:1 treble nm="Soprano" snm="S."
V:2 treble nm="Alto" snm="A."
V:3 treble-8 transpose=-12 nm="Tenor" snm="T."
V:4 treble-8 transpose=-12 
V:5 bass nm="Bass" snm="B."
V:1
 B4 | B8 (c2 d2) | (e4 G4) (A2 Bc) | (B3 D E4) (G2 F2) | E8 (G3 c) | (c4 =B2 d2) (e3 c) | %6
w: O|mag- ni- *|fy _ the _ _|Lord _ _ with _|me, With _|me _ _ ex- *|
w: Through|all the _|chang- * ing _ _|scenes _ _ of _|life, In _|trou- * * ble _|
w: Of|his de- *|liv- * ’rance _ _|I _ _ will _|boast, Till _|all _ _ that _|
 (d4 c4) =B4 | c8 d4 | (e4 d4) (e2 B2) | (d2 c2 B4) (A2 G2) | (B2 A2 G4) (F2 E2) | (F2 E2 D4) B4 | %12
w: alt _ his|name; When|in _ dis- *|tress _ _ to _|him _ _ I _|called, _ _ He|
w: and _ in|joy, The|prai- * ses _|of _ _ my _|God _ _ shall _|still _ _ My|
w: are _ dis-|tressed From|my _ ex- *|am- * * ple _|com- * * fort _|take, _ _ And|
 c8 (d2 cd) | (e4 G4) (3F2 E2 F2 | E8 |] %15
w: to my _ _|res- * cue _ _|came.|
w: heart and _ _|tongue _ em- * *|ploy.|
w: charm their _ _|griefs _ to _ _|rest.|
V:2
 G4 | (G3 F E4) A4 | (G3 F E4) E4 | (E3 F G4) A4 | G8 E4 | (G4 F4) E4 | (F4 E4) D4 | [CE]8 F4 | %8
w: O|mag- * * ni-|fy _ _ the|Lord _ _ with|me, With|me _ ex-|alt _ his|name; When|
w: Through|all _ _ the|chang- * * ing|scenes _ _ of|life, In|trou- * ble|and _ in|joy, The|
w: Of|his _ _ de-|liv- * * ’rance|I _ _ will|boast, Till|all _ that|are _ dis-|tressed From|
 (G4 F4) (B2 G2) | E8 (F2 E2) | (D4 E4) (F2 =A,2) | B,8 B4 | (B2 E2 A4) A4 | (G3 F E4) D4 | E8 |] %15
w: in _ dis- *|tress to _|him _ I _|called, He|to _ _ my|res- * * cue|came.|
w: prai- * ses _|of my _|God _ shall _|still My|heart _ _ and|tongue _ _ em-|ploy.|
w: my _ ex- *|am- ple _|com- * fort _|take, And|charm _ _ their|griefs _ _ to|rest.|
V:3
 (G3 A) | (B4 e4) f4 | e8 c4 | (G3 A B4) B4 | B8 c4 | (c4 d2 =B2) (G2 c2) | A4 G8 | G8 B4 | %8
w: O _|mag- * ni-|fy the|Lord _ _ with|me, With|me _ _ ex- *|alt his|name; When|
w: Through _|all _ the|chang- ing|scenes _ _ of|life, In|trou- * * ble _|and in|joy, The|
w: Of _|his _ de-|liv- ’rance|I _ _ will|boast, Till|all _ _ that _|are dis-|tressed From|
 (G3 A B4) E4 | e8 B4 | (B6 c2) (d2 e2) | (G4 F4) e4 | (e2 c2 f4) f4 | (e2 c2 B4) B4 | [GB]8 |] %15
w: in _ _ dis-|tress to|him _ I _|called, _ He|to _ _ my|res- * * cue|came.|
w: prai- * * ses|of my|God _ shall _|still _ My|heart _ _ and|tongue _ _ em-|ploy.|
w: my _ _ ex-|am- ple|com- * fort _|take, _ And|charm _ _ their|griefs _ _ to|rest.|
V:4
 x4 | x12 | x12 | x12 | x12 | x12 | x12 | x12 | x12 | x12 | x12 | x12 | x12 | x8 (3(A2 G2 A2) | %14
 x8 |] %15
V:5
 E,4 | (E,3 F, G,4) (A,2 B,2) | (C6 B,2) A,4 | (G,3 F, E,4) B,,4 | E,8 E,4 | (E,4 D,4) (C,2 A,2) | %6
w: O|mag- * * ni- *|fy _ the|Lord _ _ with|me, With|me _ ex- *|
w: Through|all _ _ the _|chang- * ing|scenes _ _ of|life, In|trou- * ble _|
w: Of|his _ _ de- *|liv- * ’rance|I _ _ will|boast, Till|all _ that _|
 F,4 G,8 | C,8 B,,4 | B,8 G,4 | (A,4 G,4) (D,2 E,2) | %10
w: alt his|name; When|in dis-|tress _ to _|
w: and in|joy, The|prai- ses|of _ my _|
w: are dis-|tressed From|my ex-|am- * ple _|
"^Original order of staves is Counter - Tenor - Treble - Bass: the counter part is notated in the source in the treble clef,an octave above sounding pitch.The vocal bass part is figured in the source: this figuring has been omitted from the present edition to facilitate theunderlaying of the text. The first verse only of the text is given in the source: subsequent verses have been addededitorially, on the basis of the title 'Psalm 34th 1 2 3 & 4/5 Verses' in the source.The following notes are notated as small crotchets in the source, but have been given as full-size notes in thepresent edition:Treble: Bar 3, beat 3, G; bar 9, beat 1, D; bar 10, beat 1, Bb; bar 11, beat 1, F.Tenor: Bar 0 (i.e. anacrusis), Ab." (F,4 E,4) (D,2 C,2) | %11
w: him _ I _|
w: God _ shall _|
w: com- * fort _|
 B,,8 G,4 | A,8 B,4 | (C2 A,2 B,4) B,,4 | E,8 |] %15
w: called, He|to my|res- * * cue|came.|
w: still My|heart and|tongue _ _ em-|ploy.|
w: take, And|charm their|griefs _ _ to|rest.|

